src/main/resources/icons/RubyJavascriptDebuggerIcons/icons/rails/channelGutter.svg

<svg xmlns="http://www.w3.org/2000/svg" width="12" height="12" viewBox="0 0 12 12">
  <g fill="none" fill-rule="evenodd">
    <path fill="#6E6E6E" d="M6.5,5.5 L8.5,5.5 L6,8.5 L3.5,5.5 L5.5,5.5 L5.5,-3.5 L6.5,-3.5 L6.5,5.5 Z" transform="rotate(-90 6 2.5)"/>
    <path fill="#6E6E6E" d="M9.4,10.9945326 L9.4,11 L2.4,11 L2.4,10.9945326 C1.61819682,10.9087682 1,9.82470712 1,8.5 C1,7.17529288 1.61819682,6.09123177 2.4,6.00546743 L2.4,6 L9.4,6 L9.4,6.00546743 C9.43305236,6.00184156 9.46639714,6 9.5,6 C10.3284271,6 11,7.11928813 11,8.5 C11,9.88071187 10.3284271,11 9.5,11 C9.46639714,11 9.43305236,10.9981584 9.4,10.9945326 Z M9.5,10.2 C9.99705627,10.2 10.4,9.43888407 10.4,8.5 C10.4,7.56111593 9.99705627,6.8 9.5,6.8 C9.00294373,6.8 8.6,7.56111593 8.6,8.5 C8.6,9.43888407 9.00294373,10.2 9.5,10.2 Z"/>
  </g>
</svg>

<svg xmlns="http://www.w3.org/2000/svg" width="12" height="12" viewBox="0 0 12 12"><rect id="frame" width="12" height="12" fill="none"/><g fill="#6E6E6E" fill-rule="evenodd"><path d="M9 2V0l3 2.5L9 5V3H0V2h9z"/><path d="M9.4 10.995V11h-7v-.005C1.618 10.909 1 9.825 1 8.5c0-1.325.618-2.409 1.4-2.495V6h7v.005A.917.917 0 0 1 9.5 6c.828 0 1.5 1.12 1.5 2.5S10.328 11 9.5 11a.917.917 0 0 1-.1-.005zm.1-.795c.497 0 .9-.761.9-1.7s-.403-1.7-.9-1.7-.9.761-.9 1.7.403 1.7.9 1.7z"/></g></svg>
